X: 1
T:Jolly Ploughboy
R:Morris
O:Scotland
O:England
M:C|
K:G
d3c|\
Bcd2 G2B2|E2E2 D2G2|FGAB c2B2|B4 A2dc|\
Bcd2 G2B2|E2E2 D2G2|FGAB c2F2|G4::
K:D
d2|\
c2(c2 c)ABc|d2(d2 d)ded|c2(c2 c)ABc|d2z2 d4|\
c2(c2 c)ABc|d2A2 B2G2|F2D2 E2C2|D4:|
